data/sheikah/k.svg

<!-- Generated by IcoMoon.io -->
<svg version="1.1" xmlns="http://www.w3.org/2000/svg" width="1024" height="1024" viewBox="0 0 1024 1024">
<title></title>
<g id="icomoon-ignore">
</g>
<path d="M273 870.5l-119.5-119.5v-478l119.5-119.5v717zM751 153.5l119.5 119.5v478l-119.5 119.5v-717zM352.5 153.5h119.5v318.5h-119.5v-318.5zM352.5 552h119.5v318.5h-119.5v-318.5zM552 552h119.5v318.5h-119.5v-318.5zM552 472h119.5v-318.5h-119.5v318.5z"></path>
</svg>

<svg xmlns="http://www.w3.org/2000/svg" width="1024" height="1024" viewBox="0 0 1024 1024">
  <title/>
  <path d="M273 870.5 153.5 751V273L273 153.5zm478-717L870.5 273v478L751 870.5zm-398.5 0H472V472H352.5zm0 398.5H472v318.5H352.5zm199.5 0h119.5v318.5H552zm0-80h119.5V153.5H552z"/>
</svg>
